src/img/lock.svg

<svg width="18" height="20" viewBox="0 0 18 20" fill="none" xmlns="http://www.w3.org/2000/svg">
<g clip-path="url(#clip0_323_48992)">
<path d="M16.3634 18.1979H14.7271V19.8342H16.3634V18.1979Z" fill="#3B2027"/>
<path d="M14.7272 18.1979H13.0908V19.8342H14.7272V18.1979Z" fill="#3B2027"/>
<path d="M13.091 18.1979H11.4546V19.8342H13.091V18.1979Z" fill="#3B2027"/>
<path d="M11.4547 18.1979H9.81836V19.8342H11.4547V18.1979Z" fill="#3B2027"/>
<path d="M9.818 18.1979H8.18164V19.8342H9.818V18.1979Z" fill="#3B2027"/>
<path d="M8.18177 18.1979H6.54541V19.8342H8.18177V18.1979Z" fill="#3B2027"/>
<path d="M6.54554 18.1979H4.90918V19.8342H6.54554V18.1979Z" fill="#3B2027"/>
<path d="M4.90931 18.1979H3.27295V19.8342H4.90931V18.1979Z" fill="#3B2027"/>
<path d="M3.27259 18.1979H1.63623V19.8342H3.27259V18.1979Z" fill="#3B2027"/>
<path d="M18.0001 16.5615H16.3638V18.1979H18.0001V16.5615Z" fill="#3B2027"/>
<path d="M16.3634 16.5615H14.7271V18.1979H16.3634V16.5615Z" fill="#BABBC8"/>
<path d="M14.7272 16.5615H13.0908V18.1979H14.7272V16.5615Z" fill="#BABBC8"/>
<path d="M13.091 16.5615H11.4546V18.1979H13.091V16.5615Z" fill="#F5FFE8"/>
<path d="M11.4547 16.5615H9.81836V18.1979H11.4547V16.5615Z" fill="#F5FFE8"/>
<path d="M9.818 16.5615H8.18164V18.1979H9.818V16.5615Z" fill="#F5FFE8"/>
<path d="M8.18177 16.5615H6.54541V18.1979H8.18177V16.5615Z" fill="#F5FFE8"/>
<path d="M6.54554 16.5615H4.90918V18.1979H6.54554V16.5615Z" fill="#F5FFE8"/>
<path d="M4.90931 16.5615H3.27295V18.1979H4.90931V16.5615Z" fill="#F5FFE8"/>
<path d="M3.27259 16.5615H1.63623V18.1979H3.27259V16.5615Z" fill="#F5FFE8"/>
<path d="M1.63636 16.5615H0V18.1979H1.63636V16.5615Z" fill="#3B2027"/>
<path d="M18.0001 14.9251H16.3638V16.5615H18.0001V14.9251Z" fill="#3B2027"/>
<path d="M16.3634 14.9251H14.7271V16.5615H16.3634V14.9251Z" fill="#BABBC8"/>
<path d="M14.7272 14.9251H13.0908V16.5615H14.7272V14.9251Z" fill="#F5FFE8"/>
<path d="M13.091 14.9251H11.4546V16.5615H13.091V14.9251Z" fill="#F5FFE8"/>
<path d="M11.4547 14.9251H9.81836V16.5615H11.4547V14.9251Z" fill="#F5FFE8"/>
<path d="M9.818 14.9251H8.18164V16.5615H9.818V14.9251Z" fill="#F5FFE8"/>
<path d="M8.18177 14.9251H6.54541V16.5615H8.18177V14.9251Z" fill="#F5FFE8"/>
<path d="M6.54554 14.9251H4.90918V16.5615H6.54554V14.9251Z" fill="#F5FFE8"/>
<path d="M4.90931 14.9251H3.27295V16.5615H4.90931V14.9251Z" fill="#F5FFE8"/>
<path d="M3.27259 14.9251H1.63623V16.5615H3.27259V14.9251Z" fill="#F5FFE8"/>
<path d="M1.63636 14.9251H0V16.5615H1.63636V14.9251Z" fill="#3B2027"/>
<path d="M18.0001 13.2888H16.3638V14.9252H18.0001V13.2888Z" fill="#3B2027"/>
<path d="M16.3634 13.2888H14.7271V14.9252H16.3634V13.2888Z" fill="#BABBC8"/>
<path d="M14.7272 13.2888H13.0908V14.9252H14.7272V13.2888Z" fill="#F5FFE8"/>
<path d="M13.091 13.2888H11.4546V14.9252H13.091V13.2888Z" fill="#F5FFE8"/>
<path d="M11.4547 13.2888H9.81836V14.9252H11.4547V13.2888Z" fill="#F5FFE8"/>
<path d="M9.818 13.2888H8.18164V14.9252H9.818V13.2888Z" fill="#F5FFE8"/>
<path d="M8.18177 13.2888H6.54541V14.9252H8.18177V13.2888Z" fill="#F5FFE8"/>
<path d="M6.54554 13.2888H4.90918V14.9252H6.54554V13.2888Z" fill="#F5FFE8"/>
<path d="M4.90931 13.2888H3.27295V14.9252H4.90931V13.2888Z" fill="#F5FFE8"/>
<path d="M3.27259 13.2888H1.63623V14.9252H3.27259V13.2888Z" fill="#F5FFE8"/>
<path d="M1.63636 13.2888H0V14.9252H1.63636V13.2888Z" fill="#3B2027"/>
<path d="M18.0001 11.6524H16.3638V13.2888H18.0001V11.6524Z" fill="#3B2027"/>
<path d="M16.3634 11.6524H14.7271V13.2888H16.3634V11.6524Z" fill="#BABBC8"/>
<path d="M14.7272 11.6524H13.0908V13.2888H14.7272V11.6524Z" fill="#F5FFE8"/>
<path d="M13.091 11.6524H11.4546V13.2888H13.091V11.6524Z" fill="#F5FFE8"/>
<path d="M11.4547 11.6524H9.81836V13.2888H11.4547V11.6524Z" fill="#F5FFE8"/>
<path d="M9.818 11.6524H8.18164V13.2888H9.818V11.6524Z" fill="#F5FFE8"/>
<path d="M8.18177 11.6524H6.54541V13.2888H8.18177V11.6524Z" fill="#F5FFE8"/>
<path d="M6.54554 11.6524H4.90918V13.2888H6.54554V11.6524Z" fill="#F5FFE8"/>
<path d="M4.90931 11.6524H3.27295V13.2888H4.90931V11.6524Z" fill="#F5FFE8"/>
<path d="M3.27259 11.6524H1.63623V13.2888H3.27259V11.6524Z" fill="#F5FFE8"/>
<path d="M1.63636 11.6524H0V13.2888H1.63636V11.6524Z" fill="#3B2027"/>
<path d="M18.0001 10.0161H16.3638V11.6524H18.0001V10.0161Z" fill="#3B2027"/>
<path d="M16.3634 10.0161H14.7271V11.6524H16.3634V10.0161Z" fill="#BABBC8"/>
<path d="M14.7272 10.0161H13.0908V11.6524H14.7272V10.0161Z" fill="#F5FFE8"/>
<path d="M13.091 10.0161H11.4546V11.6524H13.091V10.0161Z" fill="#F5FFE8"/>
<path d="M11.4547 10.0161H9.81836V11.6524H11.4547V10.0161Z" fill="#F5FFE8"/>
<path d="M9.818 10.0161H8.18164V11.6524H9.818V10.0161Z" fill="#F5FFE8"/>
<path d="M8.18177 10.0161H6.54541V11.6524H8.18177V10.0161Z" fill="#F5FFE8"/>
<path d="M6.54554 10.0161H4.90918V11.6524H6.54554V10.0161Z" fill="#F5FFE8"/>
<path d="M4.90931 10.0161H3.27295V11.6524H4.90931V10.0161Z" fill="#F5FFE8"/>
<path d="M3.27259 10.0161H1.63623V11.6524H3.27259V10.0161Z" fill="#F5FFE8"/>
<path d="M1.63636 10.0161H0V11.6524H1.63636V10.0161Z" fill="#3B2027"/>
<path d="M18.0001 8.3797H16.3638V10.0161H18.0001V8.3797Z" fill="#3B2027"/>
<path d="M16.3634 8.3797H14.7271V10.0161H16.3634V8.3797Z" fill="#BABBC8"/>
<path d="M14.7272 8.3797H13.0908V10.0161H14.7272V8.3797Z" fill="#F5FFE8"/>
<path d="M13.091 8.3797H11.4546V10.0161H13.091V8.3797Z" fill="#F5FFE8"/>
<path d="M11.4547 8.3797H9.81836V10.0161H11.4547V8.3797Z" fill="#F5FFE8"/>
<path d="M9.818 8.3797H8.18164V10.0161H9.818V8.3797Z" fill="#F5FFE8"/>
<path d="M8.18177 8.3797H6.54541V10.0161H8.18177V8.3797Z" fill="#F5FFE8"/>
<path d="M6.54554 8.3797H4.90918V10.0161H6.54554V8.3797Z" fill="#F5FFE8"/>
<path d="M4.90931 8.3797H3.27295V10.0161H4.90931V8.3797Z" fill="#F5FFE8"/>
<path d="M3.27259 8.3797H1.63623V10.0161H3.27259V8.3797Z" fill="#F5FFE8"/>
<path d="M1.63636 8.3797H0V10.0161H1.63636V8.3797Z" fill="#3B2027"/>
<path d="M18.0001 6.74332H16.3638V8.37968H18.0001V6.74332Z" fill="#3B2027"/>
<path d="M16.3634 6.74332H14.7271V8.37968H16.3634V6.74332Z" fill="#3B2027"/>
<path d="M14.7272 6.74332H13.0908V8.37968H14.7272V6.74332Z" fill="#BABBC8"/>
<path d="M13.091 6.74332H11.4546V8.37968H13.091V6.74332Z" fill="#3B2027"/>
<path d="M11.4547 6.74332H9.81836V8.37968H11.4547V6.74332Z" fill="#3B2027"/>
<path d="M9.818 6.74332H8.18164V8.37968H9.818V6.74332Z" fill="#3B2027"/>
<path d="M8.18177 6.74332H6.54541V8.37968H8.18177V6.74332Z" fill="#3B2027"/>
<path d="M6.54554 6.74332H4.90918V8.37968H6.54554V6.74332Z" fill="#3B2027"/>
<path d="M4.90931 6.74332H3.27295V8.37968H4.90931V6.74332Z" fill="#BABBC8"/>
<path d="M3.27259 6.74332H1.63623V8.37968H3.27259V6.74332Z" fill="#3B2027"/>
<path d="M1.63636 6.74332H0V8.37968H1.63636V6.74332Z" fill="#3B2027"/>
<path d="M16.3634 5.10696H14.7271V6.74333H16.3634V5.10696Z" fill="#3B2027"/>
<path d="M14.7272 5.10696H13.0908V6.74333H14.7272V5.10696Z" fill="#F5FFE8"/>
<path d="M13.091 5.10696H11.4546V6.74333H13.091V5.10696Z" fill="#3B2027"/>
<path d="M6.54554 5.10696H4.90918V6.74333H6.54554V5.10696Z" fill="#3B2027"/>
<path d="M4.90931 5.10696H3.27295V6.74333H4.90931V5.10696Z" fill="#F5FFE8"/>
<path d="M3.27259 5.10696H1.63623V6.74333H3.27259V5.10696Z" fill="#3B2027"/>
<path d="M16.3634 3.47061H14.7271V5.10698H16.3634V3.47061Z" fill="#3B2027"/>
<path d="M14.7272 3.47061H13.0908V5.10698H14.7272V3.47061Z" fill="#F5FFE8"/>
<path d="M13.091 3.47061H11.4546V5.10698H13.091V3.47061Z" fill="#3B2027"/>
<path d="M11.4547 3.47061H9.81836V5.10698H11.4547V3.47061Z" fill="#3B2027"/>
<path d="M9.818 3.47061H8.18164V5.10698H9.818V3.47061Z" fill="#3B2027"/>
<path d="M8.18177 3.47061H6.54541V5.10698H8.18177V3.47061Z" fill="#3B2027"/>
<path d="M6.54554 3.47061H4.90918V5.10698H6.54554V3.47061Z" fill="#3B2027"/>
<path d="M4.90931 3.47061H3.27295V5.10698H4.90931V3.47061Z" fill="#F5FFE8"/>
<path d="M3.27259 3.47061H1.63623V5.10698H3.27259V3.47061Z" fill="#3B2027"/>
<path d="M14.7272 1.83423H13.0908V3.47059H14.7272V1.83423Z" fill="#3B2027"/>
<path d="M13.091 1.83423H11.4546V3.47059H13.091V1.83423Z" fill="#F5FFE8"/>
<path d="M11.4547 1.83423H9.81836V3.47059H11.4547V1.83423Z" fill="#F5FFE8"/>
<path d="M9.818 1.83423H8.18164V3.47059H9.818V1.83423Z" fill="#F5FFE8"/>
<path d="M8.18177 1.83423H6.54541V3.47059H8.18177V1.83423Z" fill="#F5FFE8"/>
<path d="M6.54554 1.83423H4.90918V3.47059H6.54554V1.83423Z" fill="#F5FFE8"/>
<path d="M4.90931 1.83423H3.27295V3.47059H4.90931V1.83423Z" fill="#3B2027"/>
<path d="M13.091 0.197876H11.4546V1.83424H13.091V0.197876Z" fill="#3B2027"/>
<path d="M11.4547 0.197876H9.81836V1.83424H11.4547V0.197876Z" fill="#3B2027"/>
<path d="M9.818 0.197876H8.18164V1.83424H9.818V0.197876Z" fill="#3B2027"/>
<path d="M8.18177 0.197876H6.54541V1.83424H8.18177V0.197876Z" fill="#3B2027"/>
<path d="M6.54554 0.197876H4.90918V1.83424H6.54554V0.197876Z" fill="#3B2027"/>
</g>
<defs>
<clipPath id="clip0_323_48992">
<rect width="18" height="19.6364" fill="white" transform="translate(0 0.197876)"/>
</clipPath>
</defs>
</svg>

<svg width="18" height="20" fill="none" xmlns="http://www.w3.org/2000/svg"><g clip-path="url(#clip0_323_48992)"><path d="M16.363 18.198h-1.636v1.636h1.636v-1.636zm-1.636 0h-1.636v1.636h1.636v-1.636zm-1.636 0h-1.636v1.636h1.636v-1.636zm-1.636 0H9.818v1.636h1.637v-1.636zm-1.637 0H8.182v1.636h1.636v-1.636zm-1.636 0H6.545v1.636h1.637v-1.636z" fill="#3B2027"/><path d="M6.546 18.198H4.909v1.636h1.637v-1.636z" fill="#3B2027"/><path d="M4.91 18.198H3.272v1.636h1.636v-1.636z" fill="#3B2027"/><path d="M3.273 18.198H1.636v1.636h1.637v-1.636zM18 16.561h-1.636v1.637H18V16.56z" fill="#3B2027"/><path d="M16.363 16.561h-1.636v1.637h1.636V16.56zm-1.636 0h-1.636v1.637h1.636V16.56z" fill="#BABBC8"/><path d="M13.091 16.561h-1.636v1.637h1.636V16.56zm-1.636 0H9.818v1.637h1.637V16.56zm-1.637 0H8.182v1.637h1.636V16.56zm-1.636 0H6.545v1.637h1.637V16.56z" fill="#F5FFE8"/><path d="M6.546 16.561H4.909v1.637h1.637V16.56z" fill="#F5FFE8"/><path d="M4.91 16.561H3.272v1.637h1.636V16.56z" fill="#F5FFE8"/><path d="M3.273 16.561H1.636v1.637h1.637V16.56z" fill="#F5FFE8"/><path d="M1.636 16.561H0v1.637h1.636V16.56zM18 14.925h-1.636v1.636H18v-1.636z" fill="#3B2027"/><path d="M16.363 14.925h-1.636v1.636h1.636v-1.636z" fill="#BABBC8"/><path d="M14.727 14.925h-1.636v1.636h1.636v-1.636zm-1.636 0h-1.636v1.636h1.636v-1.636zm-1.636 0H9.818v1.636h1.637v-1.636zm-1.637 0H8.182v1.636h1.636v-1.636zm-1.636 0H6.545v1.636h1.637v-1.636z" fill="#F5FFE8"/><path d="M6.546 14.925H4.909v1.636h1.637v-1.636z" fill="#F5FFE8"/><path d="M4.91 14.925H3.272v1.636h1.636v-1.636z" fill="#F5FFE8"/><path d="M3.273 14.925H1.636v1.636h1.637v-1.636z" fill="#F5FFE8"/><path d="M1.636 14.925H0v1.636h1.636v-1.636zM18 13.289h-1.636v1.636H18V13.29z" fill="#3B2027"/><path d="M16.363 13.289h-1.636v1.636h1.636V13.29z" fill="#BABBC8"/><path d="M14.727 13.289h-1.636v1.636h1.636V13.29zm-1.636 0h-1.636v1.636h1.636V13.29zm-1.636 0H9.818v1.636h1.637V13.29zm-1.637 0H8.182v1.636h1.636V13.29zm-1.636 0H6.545v1.636h1.637V13.29z" fill="#F5FFE8"/><path d="M6.546 13.289H4.909v1.636h1.637V13.29z" fill="#F5FFE8"/><path d="M4.91 13.289H3.272v1.636h1.636V13.29z" fill="#F5FFE8"/><path d="M3.273 13.289H1.636v1.636h1.637V13.29z" fill="#F5FFE8"/><path d="M1.636 13.289H0v1.636h1.636V13.29zM18 11.652h-1.636v1.637H18v-1.637z" fill="#3B2027"/><path d="M16.363 11.652h-1.636v1.637h1.636v-1.637z" fill="#BABBC8"/><path d="M14.727 11.652h-1.636v1.637h1.636v-1.637zm-1.636 0h-1.636v1.637h1.636v-1.637zm-1.636 0H9.818v1.637h1.637v-1.637zm-1.637 0H8.182v1.637h1.636v-1.637zm-1.636 0H6.545v1.637h1.637v-1.637z" fill="#F5FFE8"/><path d="M6.546 11.652H4.909v1.637h1.637v-1.637z" fill="#F5FFE8"/><path d="M4.91 11.652H3.272v1.637h1.636v-1.637z" fill="#F5FFE8"/><path d="M3.273 11.652H1.636v1.637h1.637v-1.637z" fill="#F5FFE8"/><path d="M1.636 11.652H0v1.637h1.636v-1.637zM18 10.016h-1.636v1.636H18v-1.636z" fill="#3B2027"/><path d="M16.363 10.016h-1.636v1.636h1.636v-1.636z" fill="#BABBC8"/><path d="M14.727 10.016h-1.636v1.636h1.636v-1.636zm-1.636 0h-1.636v1.636h1.636v-1.636zm-1.636 0H9.818v1.636h1.637v-1.636zm-1.637 0H8.182v1.636h1.636v-1.636zm-1.636 0H6.545v1.636h1.637v-1.636z" fill="#F5FFE8"/><path d="M6.546 10.016H4.909v1.636h1.637v-1.636z" fill="#F5FFE8"/><path d="M4.91 10.016H3.272v1.636h1.636v-1.636z" fill="#F5FFE8"/><path d="M3.273 10.016H1.636v1.636h1.637v-1.636z" fill="#F5FFE8"/><path d="M1.636 10.016H0v1.636h1.636v-1.636zM18 8.38h-1.636v1.636H18V8.38z" fill="#3B2027"/><path d="M16.363 8.38h-1.636v1.636h1.636V8.38z" fill="#BABBC8"/><path d="M14.727 8.38h-1.636v1.636h1.636V8.38zm-1.636 0h-1.636v1.636h1.636V8.38zm-1.636 0H9.818v1.636h1.637V8.38zm-1.637 0H8.182v1.636h1.636V8.38zm-1.636 0H6.545v1.636h1.637V8.38z" fill="#F5FFE8"/><path d="M6.546 8.38H4.909v1.636h1.637V8.38z" fill="#F5FFE8"/><path d="M4.91 8.38H3.272v1.636h1.636V8.38z" fill="#F5FFE8"/><path d="M3.273 8.38H1.636v1.636h1.637V8.38z" fill="#F5FFE8"/><path d="M1.636 8.38H0v1.636h1.636V8.38zM18 6.743h-1.636V8.38H18V6.743zm-1.637 0h-1.636V8.38h1.636V6.743z" fill="#3B2027"/><path d="M14.727 6.743h-1.636V8.38h1.636V6.743z" fill="#BABBC8"/><path d="M13.091 6.743h-1.636V8.38h1.636V6.743zm-1.636 0H9.818V8.38h1.637V6.743zm-1.637 0H8.182V8.38h1.636V6.743zm-1.636 0H6.545V8.38h1.637V6.743z" fill="#3B2027"/><path d="M6.546 6.743H4.909V8.38h1.637V6.743z" fill="#3B2027"/><path d="M4.91 6.743H3.272V8.38h1.636V6.743z" fill="#BABBC8"/><path d="M3.273 6.743H1.636V8.38h1.637V6.743zm-1.637 0H0V8.38h1.636V6.743zm14.727-1.636h-1.636v1.636h1.636V5.107z" fill="#3B2027"/><path d="M14.727 5.107h-1.636v1.636h1.636V5.107z" fill="#F5FFE8"/><path d="M13.091 5.107h-1.636v1.636h1.636V5.107zm-6.545 0H4.909v1.636h1.637V5.107z" fill="#3B2027"/><path d="M4.91 5.107H3.272v1.636h1.636V5.107z" fill="#F5FFE8"/><path d="M3.273 5.107H1.636v1.636h1.637V5.107zm13.09-1.637h-1.636v1.637h1.636V3.471z" fill="#3B2027"/><path d="M14.727 3.47h-1.636v1.637h1.636V3.471z" fill="#F5FFE8"/><path d="M13.091 3.47h-1.636v1.637h1.636V3.471zm-1.636 0H9.818v1.637h1.637V3.471zm-1.637 0H8.182v1.637h1.636V3.471zm-1.636 0H6.545v1.637h1.637V3.471z" fill="#3B2027"/><path d="M6.546 3.47H4.909v1.637h1.637V3.471z" fill="#3B2027"/><path d="M4.91 3.47H3.272v1.637h1.636V3.471z" fill="#F5FFE8"/><path d="M3.273 3.47H1.636v1.637h1.637V3.471zm11.454-1.636h-1.636v1.637h1.636V1.834z" fill="#3B2027"/><path d="M13.091 1.834h-1.636v1.637h1.636V1.834zm-1.636 0H9.818v1.637h1.637V1.834zm-1.637 0H8.182v1.637h1.636V1.834zm-1.636 0H6.545v1.637h1.637V1.834z" fill="#F5FFE8"/><path d="M6.546 1.834H4.909v1.637h1.637V1.834z" fill="#F5FFE8"/><path d="M4.91 1.834H3.272v1.637h1.636V1.834zM13.091.198h-1.636v1.636h1.636V.198zm-1.636 0H9.818v1.636h1.637V.198zm-1.637 0H8.182v1.636h1.636V.198zm-1.636 0H6.545v1.636h1.637V.198z" fill="#3B2027"/><path d="M6.546.198H4.909v1.636h1.637V.198z" fill="#3B2027"/></g><defs><clipPath id="clip0_323_48992"><path fill="#fff" transform="translate(0 .198)" d="M0 0h18v19.636H0z"/></clipPath></defs></svg>
